X: 25564
T: Marion Grace Ritchie
R: jig
M: 6/8
K: Gmixolydian
~B3 cBA|GAB AGF|EFG FED|CDE DEG|
~B3 cBA|GAB AGF|~E3 cBA|1 GAB G2A:|2 GAB G2 e||
|:~f3 age|def edc|Bcd cBA|GAB {G}A3|
~c3 edc|Bcd cBA|GAB AGF|EcA BGG:|

